public/images/shopify.svg

<svg height="800" viewBox="-3 0 48 48" width="800" xmlns="http://www.w3.org/2000/svg"><path d="m233.8471 666.99462c.786557.78489 1.677936 1.67388 1.677936 1.67388s3.67028.273 3.843421.288c.174633.015.385088.1485.417925.39s5.213618 35.445 5.213618 35.445l-12.712913 2.763466zm-1.950194-1.333406c-.097402.012615-.181888.031815-.240664.049286-.031344.009-.556736.1725-1.426916.4425-.852269-2.463-2.355308-4.7265-4.998685-4.7265-.073137 0-.149259.003-.223889.0075-.752265-.999-1.683642-1.434-2.488148-1.434-6.15992 0-9.103309 7.74-10.025729 11.6715-2.394115.7455-4.094176 1.275-4.310601 1.344-1.337361.4215-1.379154.4635-1.553787 1.728-.13284.9585-3.628487 28.128-3.628487 28.128l27.239774 5.1285.02896-.006295zm-7.091654 1.910786c0 .0945-.001492.1815-.001492.2685-1.500053.4665-3.128469.9735-4.761363 1.482.91645-3.555 2.634422-5.2725 4.13746-5.9205.377625.954.625395 2.3235.625395 4.17zm-2.456803-5.9115c.267173 0 .534347.0915.791073.2685-1.974697.933-4.089698 3.285-4.98376 7.98-1.306016.4065-2.582181.804-3.76282 1.1715 1.046306-3.582 3.531469-9.42 7.955507-9.42zm1.061232 20.9325s-1.594087-.855-3.547888-.855c-2.865773 0-3.010555 1.8075-3.010555 2.262 0 2.4855 6.445006 3.438 6.445006 9.258 0 4.578-2.889655 7.527-6.786809 7.527-4.676285 0-7.067415-2.925-7.067415-2.925l1.252283-4.1565s2.458297 2.121 4.532997 2.121c1.35378 0 1.906038-1.0725 1.906038-1.8555 0-3.2415-5.288248-3.387-5.288248-8.7135 0-4.482 3.201607-8.82 9.664523-8.82 2.489641 0 3.721028.717 3.721028.717zm3.009062-15.255c0-.1635.001492-.324.001492-.4995 0-1.53-.211948-2.763-.550766-3.7395 1.362735.171 2.27023 1.7295 2.853833 3.522-.683606.213-1.461246.4545-2.304559.717z" fill="#81bf37" fill-rule="evenodd" transform="translate(-203 -660)"/></svg>

<?xml version="1.0" encoding="UTF-8" standalone="no"?>
<!-- Uploaded to: SVG Repo, www.svgrepo.com, Generator: SVG Repo Mixer Tools -->
<svg width="800px" height="800px" viewBox="-3 0 48 48" version="1.1" xmlns="http://www.w3.org/2000/svg" xmlns:xlink="http://www.w3.org/1999/xlink">
    
    <title>Shopify-color</title>
    <desc>Created with Sketch.</desc>
    <defs>

</defs>
    <g id="Icons" stroke="none" stroke-width="1" fill="none" fill-rule="evenodd">
        <g id="Color-" transform="translate(-203.000000, -660.000000)" fill="#81BF37">
            <path d="M233.8471,666.99462 C234.633657,667.77951 235.525036,668.6685 235.525036,668.6685 C235.525036,668.6685 239.195316,668.9415 239.368457,668.9565 C239.54309,668.9715 239.753545,669.105 239.786382,669.3465 C239.819219,669.588 245,704.7915 245,704.7915 L232.287087,707.554966 L233.8471,666.99462 Z M231.896906,665.661214 C231.799504,665.673829 231.715018,665.693029 231.656242,665.7105 C231.624898,665.7195 231.099506,665.883 230.229326,666.153 C229.377057,663.69 227.874018,661.4265 225.230641,661.4265 C225.157504,661.4265 225.081382,661.4295 225.006752,661.434 C224.254487,660.435 223.32311,660 222.518604,660 C216.358684,660 213.415295,667.74 212.492875,671.6715 C210.09876,672.417 208.398699,672.9465 208.182274,673.0155 C206.844913,673.437 206.80312,673.479 206.628487,674.7435 C206.495647,675.702 203,702.8715 203,702.8715 L230.239774,708 L230.268734,707.993705 L231.896906,665.661214 Z M224.805252,667.572 C224.805252,667.6665 224.80376,667.7535 224.80376,667.8405 C223.303707,668.307 221.675291,668.814 220.042397,669.3225 C220.958847,665.7675 222.676819,664.05 224.179857,663.402 C224.557482,664.356 224.805252,665.7255 224.805252,667.572 Z M222.348449,661.6605 C222.615622,661.6605 222.882796,661.752 223.139522,661.929 C221.164825,662.862 219.049824,665.214 218.155762,669.909 C216.849746,670.3155 215.573581,670.713 214.392942,671.0805 C215.439248,667.4985 217.924411,661.6605 222.348449,661.6605 Z M223.409681,682.593 C223.409681,682.593 221.815594,681.738 219.861793,681.738 C216.99602,681.738 216.851238,683.5455 216.851238,684 C216.851238,686.4855 223.296244,687.438 223.296244,693.258 C223.296244,697.836 220.406589,700.785 216.509435,700.785 C211.83315,700.785 209.44202,697.86 209.44202,697.86 L210.694303,693.7035 C210.694303,693.7035 213.1526,695.8245 215.2273,695.8245 C216.58108,695.8245 217.133338,694.752 217.133338,693.969 C217.133338,690.7275 211.84509,690.582 211.84509,685.2555 C211.84509,680.7735 215.046697,676.4355 221.509613,676.4355 C223.999254,676.4355 225.230641,677.1525 225.230641,677.1525 L223.409681,682.593 Z M226.418743,667.338 C226.418743,667.1745 226.420235,667.014 226.420235,666.8385 C226.420235,665.3085 226.208287,664.0755 225.869469,663.099 C227.232204,663.27 228.139699,664.8285 228.723302,666.621 C228.039696,666.834 227.262056,667.0755 226.418743,667.338 Z" id="Shopify">

</path>
        </g>
    </g>
</svg>
